X: 11064
T: Duchess Of Atholl's Slipper, The
R: strathspey
M: 4/4
K: Gmajor
D>G B>G d>B G>B|D>G B>G E<A A>B|D>G B>G D>G B<g|1 d>c B>A G2G2:|2 d>c B>A G2Gg||
|:d<gg2 d>g b>g|a>g b>g e<aa2|1 d<gg2 d>g b>g|a>g b>g d<gg2:|2 g<b e<g d<g B<g|d>c B>A G2G2||

